src/actions/24/edit-clear.svg

<svg xmlns="http://www.w3.org/2000/svg" viewBox="0 0 24 24">
  <defs id="defs3051">
    <style type="text/css" id="current-color-scheme">
      .ColorScheme-Text {
        color:#2e3440;
      }
      </style>
  </defs>
 <path 
    style="fill:currentColor;fill-opacity:1;stroke:none" 
	d="M 8 3 L 0.94335938 10.056641 L 0 11 L 0.94335938 11.943359 L 8 19 L 20.333984 19 L 22 19 L 22 3 L 20.333984 3 L 8 3 z M 11.320312 7 L 14 9.6796875 L 16.679688 7 L 18 8.3203125 L 15.320312 11 L 18 13.679688 L 16.679688 15 L 14 12.320312 L 11.320312 15 L 10 13.679688 L 12.679688 11 L 10 8.3203125 L 11.320312 7 z "
    class="ColorScheme-Text"
     transform="translate(1,1)"
    />  
</svg>

<svg viewBox="0 0 24 24" xmlns="http://www.w3.org/2000/svg">
 <defs>
  <style type="text/css">.ColorScheme-Text {
        color:#2e3440;
      }</style>
 </defs>
 <path class="ColorScheme-Text" transform="translate(1,1)" d="m8 3-8 8 8 8h12.334 1.666v-16h-1.666-12.334zm3.3203 4 2.6797 2.6797 2.6797-2.6797 1.3203 1.3203-2.6797 2.6797 2.6797 2.6797-1.3203 1.3203-2.6797-2.6797-2.6797 2.6797-1.3203-1.3203 2.6797-2.6797-2.6797-2.6797 1.3203-1.3203z" fill="currentColor"/>
</svg>
